X: 39279
T: Táim In Arrears
R: slip jig
M: 9/8
K: Edorian
A|:Bee efe dBA|Bee edB d2 e|fee efe dBA|BAB dAF E3:|
|:F2E EFE D2E|~F3 DFA B2A|BAB dAF D2E|FAB AFD E3:|

